lib/functional/system&devices/flashlight.svg

<svg xmlns="http://www.w3.org/2000/svg" fill="none" stroke="currentColor" aria-hidden="true" viewBox="0 0 32 32"><g id="Icon-Flashlight"><g clip-path="url(#clip0_9_630)"><g id="size=md (32px)"><g id="Flashlight"><path id="Vector" stroke-linecap="round" stroke-linejoin="round" stroke-width="2" d="M9 3H23C23.2652 3 23.5196 3.10536 23.7071 3.29289C23.8946 3.48043 24 3.73478 24 4V9.6625C23.9991 9.87873 23.929 10.089 23.8 10.2625L21.2 13.7375C21.071 13.911 21.0009 14.1213 21 14.3375V28C21 28.2652 20.8946 28.5196 20.7071 28.7071C20.5196 28.8946 20.2652 29 20 29H12C11.7348 29 11.4804 28.8946 11.2929 28.7071C11.1054 28.5196 11 28.2652 11 28V14.3375C10.9991 14.1213 10.929 13.911 10.8 13.7375L8.2 10.2625C8.07098 10.089 8.00089 9.87873 8 9.6625V4C8 3.73478 8.10536 3.48043 8.29289 3.29289C8.48043 3.10536 8.73478 3 9 3V3Z"/><path id="Vector_2" stroke-linecap="round" stroke-linejoin="round" stroke-width="2" d="M16 15V19"/><path id="Vector_3" stroke-linecap="round" stroke-linejoin="round" stroke-width="2" d="M8 8H24"/></g></g></g></g><defs><clipPath id="clip0_9_630"><rect width="32" height="32" fill="white" rx="5"/></clipPath></defs></svg>

<svg xmlns="http://www.w3.org/2000/svg" fill="none" stroke="currentColor" aria-hidden="true" viewBox="0 0 32 32"><path stroke-linecap="round" stroke-linejoin="round" stroke-width="2" d="M9 3h14a1 1 0 0 1 1 1v5.662c0 .217-.071.427-.2.6l-2.6 3.476c-.129.173-.2.383-.2.6V28a1 1 0 0 1-1 1h-8a1 1 0 0 1-1-1V14.338c0-.217-.071-.427-.2-.6l-2.6-3.476a1.012 1.012 0 0 1-.2-.6V4a1 1 0 0 1 1-1v0Zm7 12v4M8 8h16"/></svg>
